X: 7558
T: Cock Up &c &c
R: jig
M: 6/8
K: Gmajor
|BdG GDG|GDG G2 c|BdG GDG|ABA gfe|
BdG GDG|GDG G2 c|cec BdB|AGA BAG:|
|:GBd g3|gag ged|GBd ged|AGA BAG
GBd g3|gag ged|cec BdB|AGA BAG:|

